my_site/img/services/01.svg

<svg width="48" height="41" viewBox="0 0 48 41" fill="none" xmlns="http://www.w3.org/2000/svg">
<g clip-path="url(#clip0)">
<path d="M42.5886 8.52554H37.519V3.45592C37.519 2.55955 37.1629 1.6999 36.5291 1.06608C35.8953 0.432251 35.0356 0.0761719 34.1393 0.0761719H13.8608C12.9644 0.0761719 12.1048 0.432251 11.4709 1.06608C10.8371 1.6999 10.481 2.55955 10.481 3.45592V8.52554H5.41142C4.06687 8.52554 2.77739 9.05966 1.82665 10.0104C0.875916 10.9611 0.341797 12.2506 0.341797 13.5952V37.2534C0.341797 38.1497 0.697876 39.0094 1.3317 39.6432C1.96553 40.2771 2.82518 40.6331 3.72154 40.6331H44.2785C45.1749 40.6331 46.0345 40.2771 46.6683 39.6432C47.3022 39.0094 47.6583 38.1497 47.6583 37.2534V13.5952C47.6583 12.2506 47.1241 10.9611 46.1734 10.0104C45.2227 9.05966 43.9332 8.52554 42.5886 8.52554ZM13.8608 3.45592H34.1393V8.52554H13.8608V3.45592ZM44.2785 37.2534H3.72154V22.0445H17.2405V30.4939H30.7595V22.0445H44.2785V37.2534ZM20.6203 22.0445H27.3798V27.1141H20.6203V22.0445ZM3.72154 18.6648V13.5952C3.72154 13.147 3.89958 12.7172 4.2165 12.4002C4.53341 12.0833 4.96323 11.9053 5.41142 11.9053H42.5886C43.0368 11.9053 43.4666 12.0833 43.7836 12.4002C44.1005 12.7172 44.2785 13.147 44.2785 13.5952V18.6648H3.72154Z" fill="#0D5C63"/>
</g>
<defs>
<clipPath id="clip0">
<rect width="48" height="40.7089" fill="white"/>
</clipPath>
</defs>
</svg>

<svg width="48" height="41" fill="none" xmlns="http://www.w3.org/2000/svg"><g clip-path="url(#clip0)"><path d="M42.589 8.526h-5.07v-5.07a3.38 3.38 0 00-3.38-3.38H13.861a3.38 3.38 0 00-3.38 3.38v5.07h-5.07a5.07 5.07 0 00-5.07 5.07v23.657a3.38 3.38 0 003.38 3.38H44.28a3.38 3.38 0 003.38-3.38V13.595a5.07 5.07 0 00-5.07-5.07zM13.86 3.456h20.278v5.07H13.861v-5.07zm30.418 33.797H3.721V22.044H17.24v8.45h13.518v-8.45h13.52v15.21zM20.62 22.044h6.76v5.07h-6.76v-5.07zm-16.898-3.38v-5.069a1.69 1.69 0 011.69-1.69h37.177a1.69 1.69 0 011.69 1.69v5.07H3.721z" fill="#0D5C63"/></g><defs><clipPath id="clip0"><path fill="#fff" d="M0 0h48v40.709H0z"/></clipPath></defs></svg>
